X: 20190
T: Jockey At The Fair, The
R: jig
M: 6/8
K: Gmajor
|:D|G2 A B2 c|d2 g d2 c|BdB GAB|c2 B A2 d|
d2 d efg|a2 f d2 g|fed AB^c|d3 d2:|
|:d|g2 d g2 d|cdc B2 d|g2 d g2 d|cdc B2 d|
e2 f gfe|d2 c B2 d|edc B2 A|G2 F E2 D|
G2 G GBd|e2 f g2 B|G<g z B2 A|G3 G2:|

